img/icons/stuff-icon5.svg

<svg width="36" height="36" viewBox="0 0 36 36" fill="none" xmlns="http://www.w3.org/2000/svg">
<path fill-rule="evenodd" clip-rule="evenodd" d="M21.4232 3.46941C21.8727 3.94476 21.9623 4.65662 21.6446 5.22852C21.623 5.2673 21.6016 5.30584 21.5802 5.34416C21.1438 6.12756 20.7576 6.82087 20.7707 7.68839C20.7829 8.49822 21.366 9.97129 23.3006 11.6036C25.9191 13.813 27.2135 16.5367 27.8535 18.6708C28.1742 19.7402 28.3352 20.6761 28.4164 21.3513C28.457 21.6896 28.4779 21.9645 28.4886 22.1607C28.494 22.2588 28.4969 22.3374 28.4983 22.3946C28.4991 22.4232 28.4995 22.4464 28.4997 22.464L28.5 22.4863L28.5 22.4943L28.5 22.4974C28.5 22.4974 28.5 22.5001 27 22.5001H28.5C28.5 28.299 23.799 33.0001 18 33.0001C12.201 33.0001 7.5 28.299 7.5 22.5001C7.5 19.6062 7.90623 17.0808 8.48297 15.206C8.76964 14.2741 9.11305 13.455 9.50144 12.8197C9.69538 12.5024 9.92354 12.1929 10.1924 11.9339C10.4506 11.6852 10.8322 11.4003 11.3374 11.2866C11.7497 11.1939 12.1819 11.2793 12.5279 11.5219C12.8739 11.7646 13.1015 12.1419 13.1547 12.5611C13.2028 12.9399 13.3602 13.4945 13.6106 14.0802C13.5981 13.0853 13.6717 12.0291 13.875 10.9678C14.4416 8.01101 16.0487 4.90962 19.6792 3.15021C20.2679 2.8649 20.9737 2.99407 21.4232 3.46941ZM25.5 22.504C25.4978 26.6443 22.1408 30.0001 18 30.0001C13.8579 30.0001 10.5 26.6422 10.5 22.5001C10.5 19.9373 10.8525 17.7601 11.3134 16.2104C11.4315 16.4269 11.5571 16.6392 11.6895 16.8444C12.4433 18.013 13.7787 19.5001 15.6667 19.5001C16.1393 19.5001 16.5843 19.2773 16.8675 18.899C17.1507 18.5206 17.2391 18.0309 17.1059 17.5774C16.7166 16.2516 16.373 13.8727 16.8214 11.5323C17.0127 10.5339 17.3419 9.56279 17.864 8.68215C18.1677 10.3527 19.2318 12.0957 21.366 13.8965C23.4142 15.6246 24.4532 17.7759 24.9799 19.5325C25.2425 20.4083 25.3732 21.1717 25.4378 21.7094C25.4701 21.9775 25.4856 22.1874 25.4931 22.3245C25.4969 22.393 25.4986 22.4431 25.4994 22.4731L25.5 22.5025L25.5 22.504Z" fill="#E3000F"/>
</svg>

<svg width="36" height="36" fill="none" xmlns="http://www.w3.org/2000/svg"><path fill-rule="evenodd" clip-rule="evenodd" d="M21.423 3.47a1.5 1.5 0 01.222 1.759l-.065.115c-.436.784-.822 1.477-.81 2.344.013.81.596 2.283 2.53 3.916 2.62 2.209 3.913 4.933 4.553 7.067.321 1.07.482 2.005.563 2.68a12.606 12.606 0 01.084 1.113v.033s0 .003-1.5.003h1.5C28.5 28.3 23.799 33 18 33S7.5 28.3 7.5 22.5c0-2.894.406-5.42.983-7.294.287-.932.63-1.751 1.018-2.386a4.45 4.45 0 01.691-.886c.259-.249.64-.534 1.145-.647a1.5 1.5 0 011.818 1.274c.048.379.205.934.456 1.52-.013-.996.06-2.052.264-3.113.567-2.957 2.174-6.058 5.804-7.818a1.5 1.5 0 011.744.32zM25.5 22.503a7.5 7.5 0 01-15-.004c0-2.563.352-4.74.813-6.29.118.217.244.43.377.634.753 1.169 2.089 2.656 3.977 2.656a1.5 1.5 0 001.439-1.923c-.39-1.325-.733-3.704-.285-6.045.192-.998.52-1.97 1.043-2.85.304 1.67 1.368 3.414 3.502 5.214 2.048 1.729 3.087 3.88 3.614 5.636a13.1 13.1 0 01.458 2.177 9.55 9.55 0 01.061.764l.001.03v.001z" fill="#E3000F"/></svg>
